!!!COM: Igor (Fyodorovich) Stravinsky
!!!OTL: [T400_Str-w61p5m48-55]
**kern	**dynam	**kern	**dynam	**kern	**dynam	**kern	**dynam	**kern	**kern	**dynam	**kern	**dynam	**kern	**dynam	**kern	**dynam	**kern	**dynam	**kern	**kern	**dynam	**kern	**text	**text	**text
*grp:A	*grp:A	*grp:A	*grp:A	*grp:A	*grp:A	*grp:B	*grp:B	*grp:B	*grp:B	*grp:B	*grp:A	*grp:A	*grp:A	*grp:A	*grp:A	*grp:A	*grp:A	*grp:A	*grp:A	*grp:A	*grp:A	*grp:B	*grp:B	*grp:B	*grp:B
*part13	*part13	*part12	*part12	*part11	*part11	*part10	*part10	*part9	*part8	*part8	*part7	*part7	*part6	*part6	*part5	*part5	*part4	*part4	*part3	*part2	*part2	*part1	*part1	*part1	*part1
*staff13	*staff13	*staff12	*staff12	*staff11	*staff11	*staff10	*staff10	*staff9	*staff8	*staff8	*staff7	*staff7	*staff6	*staff6	*staff5	*staff5	*staff4	*staff4	*staff3	*staff2	*staff2	*staff1	*staff1	*staff1	*staff1
*I"Viola	*I"Viola	*I"Violin II	*I"Violin II	*I"Violin I	*I"Violin I	*I"Tuba	*I"Tuba	*I"Bass Trombone	*I"Bassoon I	*I"Bassoon I	*I"English Horn [C]	*I"English Horn [C]	*I"Bass Clarinet in Bb	*I"Bass Clarinet in Bb	*I"Clarinet [C]	*I"Clarinet [C]	*I"Oboe	*I"Oboe	*I"Flute II.	*I"Flute I.	*I"Flute I.	*I"Baritone	*I"Baritone	*I"Baritone	*I"Baritone
*I'Vla.	*	*I'Vln. II	*	*I'Vln. I	*	*I'Tba.	*	*I'B. Tbn.	*I'Bsn.	*	*I'C. A.	*	*I'B. Cl.	*	*I'Cl.	*	*I'Ob.	*	*I'Fl.	*I'Fl.	*	*I'Bar.	*	*	*
!!pagebreak:original
*clefC3	*	*clefG2	*	*clefG2	*	*clefF4	*	*clefF4	*clefF4	*	*clefG2	*	*clefF4	*	*clefG2	*	*clefG2	*	*clefG2	*clefG2	*	*clefF4	*	*	*
*	*	*	*	*	*	*	*	*	*	*	*	*	*	*	*	*	*	*	*	*	*	*	*	*	*
*k[]	*	*k[]	*	*k[]	*	*k[]	*	*k[]	*k[]	*	*k[]	*	*k[]	*	*k[]	*	*k[]	*	*k[]	*k[]	*	*k[]	*	*	*
*C:	*	*C:	*	*C:	*	*C:	*	*C:	*C:	*	*C:	*	*C:	*	*C:	*	*C:	*	*C:	*C:	*	*C:	*	*	*
*M2/8	*	*M2/8	*	*M2/8	*	*M2/8	*	*M2/8	*M2/8	*	*M2/8	*	*M2/8	*	*M2/8	*	*M2/8	*	*M2/8	*M2/8	*	*M2/8	*	*	*
=1	=1	=1	=1	=1	=1	=1	=1	=1	=1	=1	=1	=1	=1	=1	=1	=1	=1	=1	=1	=1	=1	=1	=1	=1	=1
!	!	!	!	!	!LO:DY:ed=brack	!	!	!	!	!	!	!	!	!	!	!	!	!LO:DY:ed=brack	!	!	!	!	!	!	!
8r	.	4gg	mf	4eee]	mf	4r	.	4r	20BBB#XLL	mf	4r	.	4r	.	4r	.	16dd#XLL)	mp	4r	4r	.	4r	.	.	.
.	.	.	.	.	.	.	.	.	20E	.	.	.	.	.	.	.	.	.	.	.	.	.	.	.	.
.	.	.	.	.	.	.	.	.	.	.	.	.	.	.	.	.	(16c#XJJ	.	.	.	.	.	.	.	.
.	.	.	.	.	.	.	.	.	20f#X	.	.	.	.	.	.	.	.	.	.	.	.	.	.	.	.
(8c#X	mf	.	.	.	.	.	.	.	.	.	.	.	.	.	.	.	16dd#LL)	.	.	.	.	.	.	.	.
.	.	.	.	.	.	.	.	.	20E#X	.	.	.	.	.	.	.	.	.	.	.	.	.	.	.	.
.	.	.	.	.	.	.	.	.	.	.	.	.	.	.	.	.	(<16c#JJ	.	.	.	.	.	.	.	.
.	.	.	.	.	.	.	.	.	20d#XJJ	.	.	.	.	.	.	.	.	.	.	.	.	.	.	.	.
*	*	*	*	*	*	*	*	*	*clefG2	*	*	*	*	*	*	*	*	*	*	*	*	*	*	*	*
=2	=2	=2	=2	=2	=2	=2	=2	=2	=2	=2	=2	=2	=2	=2	=2	=2	=2	=2	=2	=2	=2	=2	=2	=2	=
*M3/8	*	*M3/8	*	*M3/8	*	*M3/8	*	*M3/8	*M3/8	*	*M3/8	*	*M3/8	*	*M3/8	*	*M3/8	*	*M3/8	*M3/8	*	*M3/8	*	*	*
!	!	!	!	!	!	!	!	!	!	!	!	!	!	!LO:DY:ed=brack	!	!	!	!	!	!	!	!	!	!	!
.	.	.	.	.	.	.	.	.	.	.	.	.	(>8qf/	mf	.	.	.	.	.	.	.	.	.	.	.
!	!	!	!	!	!	!	!	!	!	!	!	!	!	!	!	!LO:DY:ed=brack	!	!	!	!	!	!	!	!	!
4.e#X)	.	8r	.	(8fn	.	8%3r	.	8%3r	16cc#X	.	8%3r	.	(40%3BLL)	.	56%3r	mf	(16dd#XLL)	.	8%3r	8%3r	.	8%3r	.	.	.
.	.	.	.	.	.	.	.	.	.	.	.	.	.	.	(56%3ALL	.	.	.	.	.	.	.	.	.	.
.	.	.	.	.	.	.	.	.	16r	.	.	.	.	.	.	.	16ddnJ	.	.	.	.	.	.	.	.
.	.	.	.	.	.	.	.	.	.	.	.	.	40%3AA#X	.	.	.	.	.	.	.	.	.	.	.	.
.	.	.	.	.	.	.	.	.	.	.	.	.	.	.	56%3b)	.	.	.	.	.	.	.	.	.	.
.	.	8r	.	4ff#X)	.	.	.	.	8r	.	.	.	.	.	.	.	16b#XL	.	.	.	.	.	.	.	.
.	.	.	.	.	.	.	.	.	.	.	.	.	40%3B#X	.	.	.	.	.	.	.	.	.	.	.	.
.	.	.	.	.	.	.	.	.	.	.	.	.	.	.	(56%3c#X	.	.	.	.	.	.	.	.	.	.
.	.	.	.	.	.	.	.	.	.	.	.	.	.	.	.	.	16a#XJ	.	.	.	.	.	.	.	.
.	.	.	.	.	.	.	.	.	.	.	.	.	.	.	56%3dd)	.	.	.	.	.	.	.	.	.	.
.	.	.	.	.	.	.	.	.	.	.	.	.	40%3d	.	.	.	.	.	.	.	.	.	.	.	.
.	.	8dd	.	.	.	.	.	.	8r	.	.	.	.	.	.	.	16anL	.	.	.	.	.	.	.	.
.	.	.	.	.	.	.	.	.	.	.	.	.	.	.	56%3r	.	.	.	.	.	.	.	.	.	.
.	.	.	.	.	.	.	.	.	.	.	.	.	40%3C#XJJ)	.	.	.	.	.	.	.	.	.	.	.	.
.	.	.	.	.	.	.	.	.	.	.	.	.	.	.	.	.	16ccc#XJJ)	.	.	.	.	.	.	.	.
.	.	.	.	.	.	.	.	.	.	.	.	.	.	.	(8qa#X/	.	.	.	.	.	.	.	.	.	.
.	.	.	.	.	.	.	.	.	.	.	.	.	.	.	56%3gg#XJJ)	.	.	.	.	.	.	.	.	.	.
!!LO:REH:t=50
=3	=3	=3	=3	=3	=3	=3	=3	=3	=3	=3	=3	=3	=3	=3	=3	=3	=3	=3	=3	=3	=3	=3	=3	=3	=3
*M2/8	*	*M2/8	*	*M2/8	*	*M2/8	*	*M2/8	*M2/8	*	*M2/8	*	*M2/8	*	*M2/8	*	*M2/8	*	*M2/8	*M2/8	*	*M2/8	*	*	*
4r	.	4r	.	4r	.	4r	.	4r	4r	.	4r	.	4r	.	4r	.	4r	.	4r	4r	.	4r	.	.	.
=4	=4	=4	=4	=4	=4	=4	=4	=4	=4	=4	=4	=4	=4	=4	=4	=4	=4	=4	=4	=4	=4	=4	=4	=4	=4
!	!	!	!	!	!	!	!	!	!	!	!	!	!	!	!	!	!	!	!	!	!LO:DY:t={ %s	!	!	!	!
4r	.	4r	.	4r	.	4r	.	4r	4r	.	4cc~	p	4r	.	4aa#X~	p	4r	.	4gg#X~	4aaan~	p	4r	.	.	.
!!pagebreak:original
*	*	*	*	*	*	*	*	*	*clefF4	*	*	*	*	*	*	*	*	*	*	*	*	*	*	*	*
=5	=5	=5	=5	=5	=5	=5	=5	=5	=5	=5	=5	=5	=5	=5	=5	=5	=5	=5	=5	=5	=5	=5	=5	=5	=5
!	!	!	!	!	!	!	!	!LO:TX:b:i:t=sempre stacc.marc.	!	!	!	!	!	!	!	!	!	!	!	!	!	!	!	!	!
.	.	.	.	.	.	.	.	.	.	.	.	.	.	.	.	.	.	.	.	.	.	8qqB^/	וַ-	Va-	And
!	!	!	!	!	!	!	!	!	!	!LO:DY:t=poco %s	!	!	!	!	!	!	!	!	!	!	!	!	!	!	!
4r	.	4r	.	4r	.	4r	.	16D#X'	16D#X'KL	sf	4r	.	4r	.	4r	.	4r	.	4r	4r	.	16D#X	.	.	.
.	.	.	.	.	.	.	.	16r	8c	.	.	.	.	.	.	.	.	.	.	.	.	16Fn	-יַּשְׁ-	-yash-	(he)
.	.	.	.	.	.	.	.	16r	.	.	.	.	.	.	.	.	.	.	.	.	.	(16G^LL	-כֵּ֨ם	-keym	rose
.	.	.	.	.	.	.	.	16Dn'	[16DnJk	.	.	.	.	.	.	.	.	.	.	.	.	16F#XJJ)	.	.	early,
=6	=6	=6	=6	=6	=6	=6	=6	=6	=6	=6	=6	=6	=6	=6	=6	=6	=6	=6	=6	=6	=6	=6	=6	=6	=6
*M3/8	*	*M3/8	*	*M3/8	*	*M3/8	*	*M3/8	*M3/8	*	*M3/8	*	*M3/8	*	*M3/8	*	*M3/8	*	*M3/8	*M3/8	*	*M3/8	*	*	*
8%3r	.	8%3r	.	8%3r	.	8%3r	.	16r	16DKL]	.	8%3r	.	8%3r	.	8%3r	.	8%3r	.	8%3r	8%3r	.	24E	אַבְ-	av-	Ab
.	.	.	.	.	.	.	.	.	.	.	.	.	.	.	.	.	.	.	.	.	.	24Dn	-רָ-	-ra-	ra
.	.	.	.	.	.	.	.	16CC'	8CC	.	.	.	.	.	.	.	.	.	.	.	.	.	.	.	.
.	.	.	.	.	.	.	.	.	.	.	.	.	.	.	.	.	.	.	.	.	.	24c#X	-הָ֜ם	-ham	ham,
.	.	.	.	.	.	.	.	8r	.	.	.	.	.	.	.	.	.	.	.	.	.	16r	.	.	.
.	.	.	.	.	.	.	.	.	8c#XJ	.	.	.	.	.	.	.	.	.	.	.	.	16c#	בַּ-	ba-	in
.	.	.	.	.	.	.	.	8r	.	.	.	.	.	.	.	.	.	.	.	.	.	24D	-בֹּ֗-	-bo-	the
.	.	.	.	.	.	.	.	.	.	.	.	.	.	.	.	.	.	.	.	.	.	24E	-קֶר	-ker	morning
.	.	.	.	.	.	.	.	.	16r	.	.	.	.	.	.	.	.	.	.	.	.	.	.	.	.
.	.	.	.	.	.	.	.	.	.	.	.	.	.	.	.	.	.	.	.	.	.	24r	.	.	.
=7	=7	=7	=7	=7	=7	=7	=7	=7	=7	=7	=7	=7	=7	=7	=7	=7	=7	=7	=7	=7	=7	=7	=7	=7	=7
*M2/8	*	*M2/8	*	*M2/8	*	*M2/8	*	*M2/8	*M2/8	*	*M2/8	*	*M2/8	*	*M2/8	*	*M2/8	*	*M2/8	*M2/8	*	*M2/8	*	*	*
!	!	!	!	!	!	!	!LO:DY:t=poco %s	!	!	!	!	!	!	!	!	!	!	!	!	!	!	!	!	!	!
4r	.	4r	.	4r	.	16CC'	sf	4r	16CCn'LL	.	4r	.	4r	.	4r	.	4r	.	4r	4r	.	24D	וַ-	va-	and
.	.	.	.	.	.	.	.	.	.	.	.	.	.	.	.	.	.	.	.	.	.	24E	-יַּֽ-	-ya-	saddled
.	.	.	.	.	.	16r	.	.	16c#XJJ	.	.	.	.	.	.	.	.	.	.	.	.	.	.	.	.
.	.	.	.	.	.	.	.	.	.	.	.	.	.	.	.	.	.	.	.	.	.	24D	-חֲ-	-kha-	.
.	.	.	.	.	.	16r	.	.	16r	.	.	.	.	.	.	.	.	.	.	.	.	(24ELL	-בשׁ֙	-vosh	.
.	.	.	.	.	.	.	.	.	.	.	.	.	.	.	.	.	.	.	.	.	.	24DJJ)	.	.	.
.	.	.	.	.	.	16GG'LL	.	.	16GG'LL	.	.	.	.	.	.	.	.	.	.	.	.	.	.	.	.
.	.	.	.	.	.	.	.	.	.	.	.	.	.	.	.	.	.	.	.	.	.	24D	את־	et	.
=8	=8	=8	=8	=8	=8	=8	=8	=8	=8	=8	=8	=8	=8	=8	=8	=8	=8	=8	=8	=8	=8	=8	=8	=8	=8
*M3/8	*	*M3/8	*	*M3/8	*	*M3/8	*	*M3/8	*M3/8	*	*M3/8	*	*M3/8	*	*M3/8	*	*M3/8	*	*M3/8	*M3/8	*	*M3/8	*	*	*
!	!	!	!	!	!	!LO:TX:t=P:problem:cross-bear beaming	!	!	!LO:TX:t=P:problem:cross-bar beaming	!	!	!	!	!	!	!	!	!	!	!	!	!	!	!	!
8%3r	.	8%3r	.	8%3r	.	16r	.	8%3r	16c#X'	.	8%3r	.	8%3r	.	8%3r	.	8%3r	.	8%3r	8%3r	.	(24ELL	חֲ-	kha-	his
.	.	.	.	.	.	.	.	.	.	.	.	.	.	.	.	.	.	.	.	.	.	24DJJ)	.	.	ass,
.	.	.	.	.	.	16GG'JJ	.	.	16GG'JJ	.	.	.	.	.	.	.	.	.	.	.	.	.	.	.	.
.	.	.	.	.	.	.	.	.	.	.	.	.	.	.	.	.	.	.	.	.	.	(24D	-מֹ-	-mo-	.
.	.	.	.	.	.	24r	.	.	24c#'LL	.	.	.	.	.	.	.	.	.	.	.	.	16ELL	.	.	.
.	.	.	.	.	.	24GG'	.	.	24GG'JJ	.	.	.	.	.	.	.	.	.	.	.	.	.	.	.	.
.	.	.	.	.	.	.	.	.	.	.	.	.	.	.	.	.	.	.	.	.	.	16F#XJJ)	.	.	.
.	.	.	.	.	.	24r	.	.	24r	.	.	.	.	.	.	.	.	.	.	.	.	.	.	.	.
.	.	.	.	.	.	8r	.	.	8r	.	.	.	.	.	.	.	.	.	.	.	.	(32G^LLL	-ר֔וֹ	-ro	.
.	.	.	.	.	.	.	.	.	.	.	.	.	.	.	.	.	.	.	.	.	.	32FnJJJ)	.	.	.
.	.	.	.	.	.	.	.	.	.	.	.	.	.	.	.	.	.	.	.	.	.	16r	.	.	.
=	=	=	=	=	=	=	=	=	=	=	=	=	=	=	=	=	=	=	=	=	=	=	=	=	=
*-	*-	*-	*-	*-	*-	*-	*-	*-	*-	*-	*-	*-	*-	*-	*-	*-	*-	*-	*-	*-	*-	*-	*-	*-	*-
!!!system-decoration: [(s1[(s2,s3)]s4,s5,s6,s7,s8,s9,s10[(s11,s12)]s13)]
!!!RDF**kern: > = above
!!!RDF**kern: < = below
